images/BOA.svg

<svg height="250" viewBox="0 0 250 250" width="250" xmlns="http://www.w3.org/2000/svg"><path d="m250 125c0 69.035156-55.964844 125-125 125s-125-55.964844-125-125 55.964844-125 125-125 125 55.964844 125 125zm0 0" fill="#fff"/><g fill="#004f9e"><path d="m205.832031 79.1875h-161.664062v22.554688h9.769531l-3.027344 80.734374h-6.742187v11.28125h161.664062v-11.273437h-8.757812l-3.027344-80.734375h11.785156zm-99.242187 103.273438h-18.847656l-3.03125-80.695313h24.933593zm55.597656 0h-18.847656l-3.027344-80.695313h24.9375zm0 0"/><path d="m125 32.097656-60.289062 35.8125h120.578124zm0 0"/></g></svg>

<svg xmlns="http://www.w3.org/2000/svg" width="250" height="250"><path fill="#fff" d="M250 125c0 69.035-55.965 125-125 125S0 194.035 0 125 55.965 0 125 0s125 55.965 125 125zm0 0"/><g fill="#004f9e"><path d="M205.832 79.188H44.168v22.554h9.77l-3.028 80.735h-6.742v11.28h161.664v-11.273h-8.758l-3.027-80.734h11.785zM106.59 182.46H87.742l-3.031-80.695h24.934zm55.597 0H143.34l-3.028-80.695h24.938zM125 32.098 64.71 67.91h120.58zm0 0"/></g></svg>
